X:97
T:Concerto Grosso Op.1 No.8 - Grave
C:Locatelli, P.
M:4/4
L:1/8
Q:1/4=50
K:Gmin
|:D2|g4 fg a2|b4 a2 g2|f4 ef g2|a4 g2 f2|
e4 de f2|g2 fe d2 c2|d4 EF G2|G4 G2:|

